X:134 
T:Martin Ansboro's (reel)  
B:CRE3.091 (RÃÂÃÂÃÂÃÂ­l MhÃÂÃÂÃÂÃÂ¡irtÃÂÃÂÃÂÃÂ­n UÃÂÃÂÃÂÃÂ­ Ainmhire)
F:file ID: cre.3/134mart_a
R:reel
Q:180
M:C
L:1/8
K:Em
e3d BAFA|d2fd Adfd|e3d BAFe|faba fe~e2|
e3d BAFA|d2fd adfd|e2ed BAfe|faba fee2||
|:befe befe|adfd adf2|befe befe|afde fe~e2:|

%%%

